!!!COM: de Machuat, Guillaume
!!!OTL: Merci vous pri
!! Guillaume de Machaut, "Merci vous pri" No. 3 from Volume 5 of
!! "Oeuvres Comple\tes" E/ditions de l'Oiseau-lyre (Monaco) -1977; p.2
**kern	**kern
*M6/8	*M6/8
=1	=1
2.F	[2.c
=2	=2
2.A	4.c]
.	8A
.	4B
=3	=3
2.G	8c
.	4r
.	4.B
=4	=4
2.F	4c
.	8B
.	8c
.	8B
.	8c
=5	=5
[2.E	[4.G
.	4G]
.	8F
=6	=6
2.E]	8G
.	4A
.	8B
.	4A
=7	=7
[2.F	8A
.	4G
.	8G
.	4F
=8	=8
2.F]	2.F
=9	=9
4.G	8e
.	4d
4.A	8e
.	4c
=10	=10
4.G	4.B
4.F	4.c
=11	=11
2.E	[2.G
=12	=12
2.D	4.G]
.	8A
.	4B
=13	=13
4.C	8c
.	4r
4.F	4.F
=14	=14
4r	8A
.	4G
8G	.
4r	8G
.	4F
8A	.
=15	=15
[2.G	4.F
.	4.E
=16	=16
2.G_	8r
.	8B
.	8c
.	4.d
=17	=17
2.G_	8d
.	8c
.	8d
.	8B-
.	8A
.	8B-
=18	=18
2.G]	4G
.	8F
.	8A
.	8r
.	8d
=19	=19
4.D	4c
.	8B-
4.E-	8A
.	8r
.	8Bn
=20	=20
4.D	4c
.	8B
[4.C	4c
.	8G
=21	=21
4.C]	4.G
[4.D	8A
.	8r
.	8A
=22	=22
4.D]	4.G
4.F	8G
.	4F
=23	=23
4.F	8F
.	4r
4r	4.f
8F	.
=24	=24
4.G	8e
.	4d
4.F	8d
.	4c#
=25	=25
2.E	8d
.	8c#
.	8d
.	8c#
.	8B
.	8c#
=26	=26
[2.D	[4.d
.	4d]
.	8c#
=27	=27
2.D;]	2.d;
=28	=28
2.G	2.e
=29	=29
2.F	4.r
.	4.f
=30	=30
4.G	8e
.	4d
4.A	8d
.	4c
=31	=31
4.B-	8c
.	8r
.	8d
4.A	4d
.	8c
=32	=32
[2.G	2.B
=33	=33
2.G]	4r
.	8B
.	4.c
=34	=34
4.G	2.d
4r	.
8G	.
=35	=35
2.F	8c
.	4r
.	4.f
=36	=36
[2.G	8e
.	4d
.	8d
.	4c
=37	=37
2.G]	8c
.	4B-
.	8B-
.	4A
=38	=38
2.D	[4.A
.	4A]
.	8G
=39	=39
2.E-	4.G
.	8F
.	4G
=40	=40
4.D	8A
.	4r
4.C	4.c
=41	=41
2.G	4.B
.	4r
.	8c
=42	=42
4.F	8d
.	8c
.	8d
4.E	8e
.	8d
.	8e
=43	=43
4.F	8c
.	4r
4r	4.f
8F	.
=44	=44
4.G	8e
.	4d
4r	8d
.	4c
8E	.
=45	=45
2.D	4.B
.	8A
.	4B
=46	=46
2.C	2.c
==	==
*-	*-
